<?xml version="1.0" encoding="UTF-8"?>
<map version="1.10" tiledversion="1.12.2" orientation="orthogonal" renderorder="right-down" width="40" height="23" tilewidth="16" tileheight="16" infinite="0" nextlayerid="4" nextobjectid="91">
 <tileset firstgid="1" source="Pixel_Adventure.tsx"/>
 <layer id="1" name="Background" width="40" height="23">
  <properties>
   <property name="BackgroundColor" value="Gray"/>
  </properties>
  <data encoding="csv">
24,24,24,24,24,24,24,24,24,24,24,24,24,24,24,24,24,24,24,24,24,24,24,24,24,24,24,24,24,24,24,24,24,24,24,24,24,24,24,24,
24,24,24,24,24,24,24,24,24,24,24,24,24,24,24,24,24,24,24,24,24,24,24,24,24,24,24,24,24,24,24,24,24,24,24,24,24,24,24,24,
24,24,24,24,24,24,24,24,24,24,24,24,24,24,24,24,24,24,24,24,24,24,24,24,24,24,24,24,24,24,24,24,24,24,24,24,24,24,24,24,
24,24,24,92,134,134,134,134,134,134,134,134,134,134,134,134,134,134,134,134,134,134,134,134,134,134,134,134,134,134,134,134,134,134,134,134,93,24,24,24,
24,24,24,113,0,0,0,0,0,0,0,0,0,0,0,0,0,0,0,0,0,0,0,0,0,0,0,0,0,0,0,0,0,0,0,0,111,24,24,24,
24,24,24,113,0,0,0,0,0,0,0,0,0,0,0,0,0,0,0,0,0,0,0,0,0,0,0,0,0,0,0,0,0,0,0,0,111,24,24,24,
24,24,24,113,0,0,0,0,0,0,0,0,0,0,0,0,0,0,0,0,0,0,0,0,0,0,0,0,0,0,0,0,0,0,0,0,111,24,24,24,
24,24,24,113,0,0,0,0,0,13,14,14,14,14,14,14,14,14,14,14,14,14,14,15,0,0,0,16,0,0,0,0,16,0,0,0,111,24,24,24,
24,24,24,113,0,0,0,0,0,0,0,0,0,0,0,0,0,0,0,0,0,0,0,0,0,0,0,38,0,0,0,0,38,0,0,0,111,24,24,24,
24,24,24,113,41,41,41,42,0,0,0,0,0,0,0,0,0,0,0,0,0,0,0,0,0,0,0,60,0,0,0,0,60,0,0,0,111,24,24,24,
24,24,24,113,0,0,0,0,0,0,0,0,0,0,0,0,0,0,0,0,0,0,0,0,0,0,0,0,0,0,0,0,0,0,0,0,111,24,24,24,
24,24,24,113,0,0,0,0,0,0,0,0,0,0,40,41,41,41,41,41,41,42,0,0,0,0,0,0,0,0,0,0,0,0,0,0,111,24,24,24,
24,24,24,113,0,0,0,0,0,0,0,0,0,0,0,0,0,0,0,0,0,0,0,0,0,0,0,0,0,0,0,0,0,0,0,0,111,24,24,24,
24,24,24,113,41,41,41,42,0,0,0,0,0,0,0,0,0,0,0,0,0,0,0,0,0,0,0,0,0,0,0,0,0,0,0,0,111,24,24,24,
24,24,24,113,0,0,0,0,0,0,0,0,0,0,0,0,0,0,0,0,0,0,0,0,0,0,0,0,0,0,0,0,0,0,0,0,111,24,24,24,
24,24,24,113,0,0,0,0,0,0,0,0,0,0,0,0,0,0,0,0,0,0,0,0,0,0,0,0,0,0,0,0,0,0,0,0,111,24,24,24,
24,24,24,113,183,184,184,184,184,184,184,185,0,0,0,0,0,0,0,0,0,0,0,0,183,184,184,184,184,184,184,184,184,184,184,185,111,24,24,24,
24,24,24,113,205,206,206,206,206,206,206,206,183,184,184,184,184,184,184,184,184,184,184,185,206,206,206,206,206,206,206,206,206,206,206,207,111,24,24,24,
24,24,24,113,227,228,228,228,228,228,228,228,227,228,228,228,228,228,228,228,228,228,228,229,228,228,228,228,228,228,228,228,228,228,228,229,111,24,24,24,
24,24,24,114,90,90,90,90,90,90,90,90,90,90,90,90,90,90,90,90,90,90,90,90,90,90,90,90,90,90,90,90,90,90,90,90,115,24,24,24,
24,24,24,24,24,24,24,24,24,24,24,24,24,24,24,24,24,24,24,24,24,24,24,24,24,24,24,24,24,24,24,24,24,24,24,24,24,24,24,24,
24,24,24,24,24,24,24,24,24,24,24,24,24,24,24,24,24,24,24,24,24,24,24,24,24,24,24,24,24,24,24,24,24,24,24,24,24,24,24,24,
24,24,24,24,24,24,24,24,24,24,24,24,24,24,24,24,24,24,24,24,24,24,24,24,24,24,24,24,24,24,24,24,24,24,24,24,24,24,24,24
</data>
 </layer>
 <objectgroup id="3" name="Collisions">
  <object id="19" x="48" y="48" width="544" height="16"/>
  <object id="20" x="576" y="64" width="16" height="256"/>
  <object id="21" x="64" y="304" width="512" height="16"/>
  <object id="22" x="48" y="64" width="16" height="256"/>
  <object id="65" x="144" y="112" width="240" height="16"/>
  <object id="66" x="432" y="112" width="16" height="48"/>
  <object id="67" x="512" y="112" width="16" height="48"/>
  <object id="68" type="Platform" x="224" y="176" width="128" height="16"/>
  <object id="69" type="Platform" x="64" y="144" width="64" height="16"/>
  <object id="70" type="Platform" x="64" y="208" width="64" height="16"/>
  <object id="71" x="64" y="256" width="128" height="48"/>
  <object id="72" x="192" y="272" width="192" height="32"/>
  <object id="73" x="384" y="256" width="192" height="48"/>
 </objectgroup>
 <objectgroup id="2" name="Spawnpoints">
  <object id="75" name="Kiwi" type="Fruit" x="80" y="176" width="32" height="32"/>
  <object id="76" name="Melon" type="Fruit" x="80" y="112" width="32" height="32"/>
  <object id="77" name="Orange" type="Fruit" x="368" y="144" width="32" height="32"/>
  <object id="78" type="Spike" x="224" y="256" width="16" height="16">
   <properties>
    <property name="isVertical" type="bool" value="false"/>
    <property name="offNeg" type="float" value="8"/>
    <property name="offPos" type="float" value="7"/>
   </properties>
  </object>
  <object id="79" type="Spike" x="272" y="256" width="16" height="16">
   <properties>
    <property name="isVertical" type="bool" value="false"/>
    <property name="offNeg" type="float" value="8"/>
    <property name="offPos" type="float" value="7"/>
   </properties>
  </object>
  <object id="80" type="Spike" x="272" y="256" width="16" height="16">
   <properties>
    <property name="isVertical" type="bool" value="false"/>
    <property name="offNeg" type="float" value="8"/>
    <property name="offPos" type="float" value="7"/>
   </properties>
  </object>
  <object id="81" type="Spike" x="272" y="256" width="16" height="16">
   <properties>
    <property name="isVertical" type="bool" value="false"/>
    <property name="offNeg" type="float" value="8"/>
    <property name="offPos" type="float" value="7"/>
   </properties>
  </object>
  <object id="82" type="Spike" x="272" y="256" width="16" height="16">
   <properties>
    <property name="isVertical" type="bool" value="false"/>
    <property name="offNeg" type="float" value="8"/>
    <property name="offPos" type="float" value="7"/>
   </properties>
  </object>
  <object id="83" type="Spike" x="320" y="256" width="16" height="16">
   <properties>
    <property name="isVertical" type="bool" value="false"/>
    <property name="offNeg" type="float" value="8"/>
    <property name="offPos" type="float" value="7"/>
   </properties>
  </object>
  <object id="84" type="Checkpoint" x="512" y="192" width="64" height="64"/>
  <object id="85" name="Pineapple" type="Fruit" x="464" y="96" width="32" height="32"/>
  <object id="86" name="Apple" type="Fruit" x="464" y="144" width="32" height="32"/>
  <object id="88" name="AngryPig" type="AngryPig" x="288" y="240" width="32" height="32">
   <properties>
    <property name="deadDamage" type="bool" value="false"/>
    <property name="offNeg" type="float" value="6"/>
    <property name="offPos" type="float" value="6"/>
    <property name="patrol" type="bool" value="true"/>
    <property name="undead" type="bool" value="false"/>
   </properties>
  </object>
  <object id="89" name="Player" type="Player" x="144" y="224" width="32" height="32"/>
  <object id="90" name="Chicken" type="Chicken" x="304" y="80" width="32" height="32">
   <properties>
    <property name="deadDamage" type="bool" value="false"/>
    <property name="offNeg" type="float" value="10"/>
    <property name="offPos" type="float" value="6"/>
    <property name="patrol" type="bool" value="true"/>
    <property name="undead" type="bool" value="false"/>
   </properties>
  </object>
 </objectgroup>
</map>
